templates/shower.svg

<svg width="741" height="741" viewBox="0 0 741 741" fill="none" xmlns="http://www.w3.org/2000/svg">
<path d="M730.585 737.51H10.374C3.44887 737.51 3.44897 737.51 3.44897 730.584V10.3732C3.44897 3.44813 3.44887 3.44812 10.374 3.44812H730.585C737.51 3.44812 737.51 3.44813 737.51 10.3732V730.584C737.51 737.51 730.585 737.51 730.585 737.51Z" fill="white"/>
<path d="M692.511 682.095V44.9717C692.506 43.8704 692.196 43.285 691.97 42.9429C691.729 42.5819 691.402 42.2899 690.955 42.0637C690.487 41.8295 689.958 41.6607 689.535 41.5903C689.338 41.558 689.157 41.5295 689.062 41.5227H226.013C144.254 82.5876 82.7089 150.736 41.5236 225.944V689.061C41.5278 690.162 41.8382 690.748 42.0646 691.09C42.3052 691.451 42.6321 691.743 43.079 691.969C43.5474 692.203 44.0767 692.372 44.4992 692.442C44.696 692.475 44.8774 692.503 44.9726 692.51H682.096C684.432 692.51 687.086 691.307 689.197 689.196C691.308 687.085 692.511 684.432 692.511 682.095ZM180.026 207.752H186.991V256.242H180.026V207.752ZM166.162 186.991V193.889H117.74V186.991H166.162ZM256.242 186.991V193.889H200.788V186.991H256.242ZM180.026 117.739H186.991V173.127H180.026V117.739ZM699.409 682.095C699.409 686.684 697.149 690.982 694.066 694.065C690.983 697.148 686.685 699.408 682.096 699.408H44.4316C44.1531 699.387 43.7827 699.345 43.3495 699.273C42.4735 699.127 41.2309 698.822 39.9681 698.191C38.6962 697.552 37.299 696.52 36.2486 694.944C35.1925 693.35 34.6301 691.376 34.6255 689.061V224.186L35.0313 223.374C75.3534 149.456 135.23 81.9556 214.651 39.6291V34.6247H224.187L226.621 33.4073L227.23 34.6247H689.603C689.881 34.6452 690.252 34.6878 690.685 34.7599C691.561 34.9059 692.803 35.2105 694.066 35.842C695.338 36.4806 696.735 37.5124 697.786 39.0881C698.842 40.6821 699.404 42.6569 699.409 44.9717V682.095Z" fill="#1D2132"/>
<path d="M34.6255 221.574H41.5236V224.55L41.7264 223.941C69.7751 139.813 139.854 69.7271 223.984 41.6839L227.23 40.6018L229.462 47.1617L226.148 48.3114C144.084 75.6689 75.6413 144.108 48.2864 226.173L47.2043 229.419L41.5236 227.526V242.336H34.6255V221.574ZM214.651 183.5C214.651 173.899 211.453 166.167 206.13 160.844C200.808 155.53 193.067 152.323 183.475 152.323C174.33 152.332 166.587 156.922 161.022 163.279C155.395 169.71 152.366 177.58 152.366 183.5C152.366 193.092 155.505 200.833 160.819 206.155C166.137 211.473 173.886 214.67 183.475 214.676C193.067 214.676 200.808 211.47 206.13 206.155C211.453 200.832 214.651 193.101 214.651 183.5ZM221.617 183.5C221.617 194.663 217.85 204.229 211.067 211.024C204.271 217.821 194.649 221.574 183.475 221.574C172.312 221.568 162.741 217.815 155.95 211.024C149.162 204.229 145.4 194.667 145.4 183.5C145.4 175.57 149.323 166.099 155.815 158.68C162.358 151.216 171.886 145.434 183.475 145.425C194.649 145.425 204.271 149.179 211.067 155.975C217.85 162.77 221.617 172.336 221.617 183.5Z" fill="#1D2132"/>
<path d="M183.488 131.578C213.391 131.578 235.197 154.108 242.325 189.738L242.46 190.414H242.392C242.392 219.737 220.304 249.318 183.488 249.318C154.17 249.311 124.652 227.224 124.652 190.414V189.535H124.787C128.375 175.224 135.532 160.826 145.482 149.973C155.449 139.11 168.419 131.582 183.488 131.578ZM183.488 138.476C170.881 138.48 159.621 144.814 150.554 154.707C141.553 164.533 134.916 177.7 131.55 190.955C131.829 223.069 157.557 242.346 183.488 242.352C215.818 242.352 235.231 216.675 235.359 190.685C228.552 157.337 208.876 138.476 183.488 138.476Z" fill="#1D2132"/>
<path d="M734.034 24.2108C734.032 17.8271 732.424 13.6733 729.841 11.091C727.256 8.51481 723.102 6.89806 716.722 6.89806H24.2108C17.8272 6.90034 13.6734 8.50865 11.091 11.091C8.50861 13.6734 6.90031 17.8272 6.89806 24.2108V716.722C6.89806 723.102 8.51475 727.256 11.091 729.841C13.6734 732.424 17.8272 734.032 24.2108 734.034H716.722C717.467 734.034 718.945 733.577 721.05 732.276C723.05 731.038 725.255 729.288 727.272 727.272C729.288 725.255 731.038 723.05 732.276 721.05C733.577 718.944 734.034 717.467 734.034 716.722V24.2108ZM741 716.722C741 719.434 739.663 722.271 738.16 724.702C736.585 727.246 734.452 729.829 732.141 732.141C729.829 734.452 727.246 736.585 724.702 738.16C722.271 739.663 719.434 741 716.722 741H24.2108C16.7696 740.998 10.5592 739.102 6.22178 734.778C1.88079 730.437 0 724.18 0 716.722V24.2108C0.00225913 16.758 1.88346 10.5601 6.22178 6.22178C10.5601 1.88352 16.7581 0.00229212 24.2108 0H716.722C724.18 0 730.437 1.88081 734.778 6.22178C739.102 10.5592 740.998 16.7696 741 24.2108V716.722Z" fill="#1D2132"/>
</svg>

<svg xmlns="http://www.w3.org/2000/svg" width="741" height="741" fill="none" viewBox="0 0 741 741"><path fill="#fff" d="M730.585 737.51H10.374c-6.925 0-6.925 0-6.925-6.926V10.374c0-6.926 0-6.926 6.925-6.926h720.211c6.925 0 6.925 0 6.925 6.925v720.211c0 6.926-6.925 6.926-6.925 6.926"/><path fill="#1d2132" d="M692.511 682.095V44.972c-.005-1.102-.315-1.687-.541-2.03a2.6 2.6 0 0 0-1.015-.878 5.3 5.3 0 0 0-1.42-.474 7 7 0 0 0-.473-.067H226.013C144.254 82.588 82.709 150.736 41.523 225.944v463.117c.005 1.101.315 1.687.542 2.029.24.361.567.653 1.014.879.468.234.998.403 1.42.473.197.033.378.061.474.068h637.123c2.336 0 4.99-1.203 7.101-3.314s3.314-4.764 3.314-7.101M180.026 207.752h6.965v48.49h-6.965zm-13.864-20.761v6.898H117.74v-6.898zm90.08 0v6.898h-55.454v-6.898zm-76.216-69.252h6.965v55.388h-6.965zm519.383 564.356c0 4.589-2.26 8.887-5.343 11.97s-7.381 5.343-11.97 5.343H44.432a13 13 0 0 1-1.083-.135 12.1 12.1 0 0 1-3.38-1.082c-1.273-.639-2.67-1.671-3.72-3.247-1.056-1.594-1.619-3.568-1.623-5.883V224.186l.405-.812C75.353 149.456 135.23 81.956 214.651 39.629v-5.004h9.536l2.434-1.218.609 1.218h462.373c.278.02.649.063 1.082.135a12.1 12.1 0 0 1 3.381 1.082c1.272.639 2.669 1.67 3.72 3.246 1.056 1.594 1.618 3.569 1.623 5.884M34.626 221.574h6.898v2.976l.202-.609c28.05-84.128 98.128-154.214 182.258-182.257l3.246-1.082 2.232 6.56-3.314 1.15c-82.064 27.356-150.507 95.795-177.862 177.86l-1.082 3.246-5.68-1.893v14.81h-6.898zM214.65 183.5c0-9.601-3.198-17.333-8.521-22.656-5.322-5.314-13.063-8.521-22.655-8.521-9.145.009-16.888 4.599-22.453 10.956-5.627 6.431-8.656 14.301-8.656 20.221 0 9.592 3.139 17.333 8.453 22.655 5.318 5.318 13.067 8.515 22.656 8.521 9.592 0 17.333-3.206 22.655-8.521 5.323-5.323 8.521-13.054 8.521-22.655m6.966 0c0 11.163-3.767 20.729-10.55 27.524-6.796 6.797-16.418 10.55-27.592 10.55-11.163-.006-20.734-3.759-27.525-10.55-6.788-6.795-10.55-16.357-10.55-27.524 0-7.93 3.923-17.401 10.415-24.82 6.543-7.464 16.071-13.246 27.66-13.255 11.174 0 20.796 3.754 27.592 10.55 6.783 6.795 10.55 16.361 10.55 27.525M734.034 24.21c-.002-6.383-1.61-10.537-4.193-13.119-2.585-2.576-6.739-4.193-13.119-4.193H24.211c-6.384.002-10.538 1.61-13.12 4.193s-4.19 6.736-4.193 13.12v692.511c0 6.38 1.617 10.534 4.193 13.119 2.582 2.583 6.736 4.191 13.12 4.193h692.511c.745 0 2.223-.457 4.328-1.758 2-1.238 4.205-2.988 6.222-5.004 2.016-2.017 3.766-4.222 5.004-6.222 1.301-2.106 1.758-3.583 1.758-4.328zM741 716.723c0 2.712-1.337 5.549-2.84 7.98-1.575 2.544-3.708 5.127-6.019 7.439-2.312 2.311-4.895 4.444-7.439 6.019-2.431 1.503-5.268 2.84-7.98 2.84H24.211c-7.441-.002-13.652-1.898-17.99-6.222C1.882 730.437 0 724.18 0 716.722V24.211c.002-7.453 1.883-13.65 6.222-17.99C10.56 1.885 16.758.003 24.21 0h692.511c7.458 0 13.715 1.88 18.056 6.222 4.324 4.337 6.22 10.548 6.222 17.989M183.488 131.578c29.903 0 51.709 22.53 58.837 58.16l.135.676h-.068c0 29.323-22.088 58.904-58.904 58.904-29.318-.007-58.836-22.094-58.836-58.904v-.879h.135c3.588-14.311 10.745-28.709 20.695-39.562 9.967-10.863 22.937-18.391 38.006-18.395m0 6.898c-12.607.004-23.867 6.338-32.934 16.231-9.001 9.826-15.638 22.993-19.004 36.248.279 32.114 26.007 51.391 51.938 51.397 32.33 0 51.743-25.677 51.871-51.667-6.807-33.348-26.483-52.209-51.871-52.209"/></svg>
